**kern	**text	**kern	**text	**kern	**text	**kern	**text	**kern	**text
*staff5	*staff5	*staff4	*staff4	*staff3	*staff3	*staff2	*staff2	*staff1	*staff1
=1-	=1-	=1-	=1-	=1-	=1-	=1-	=1-	=1-	=1-
*clefF4	*	*clefGv2	*	*clefGv2	*	*clefGv2	*	*clefG2	*
*k[]	*	*k[]	*	*k[]	*	*k[]	*	*k[]	*
*M4/4	*	*M4/4	*	*M4/4	*	*M4/4	*	*M4/4	*
1r	.	1B\	In	1r	.	1r	.	1r	.
=2	=2	=2	=2	=2	=2	=2	=2	=2	=2
1r	.	1c\	va-	1r	.	1e\	In	1r	.
=3	=3	=3	=3	=3	=3	=3	=3	=3	=3
1r	.	2c#\	noas-	1r	.	1a\	va-	1r	.
.	.	[2d\	con-	.	.	.	.	.	.
=4	=4	=4	=4	=4	=4	=4	=4	=4	=4
1r	.	2d\]	.	1r	.	2a\	noas-	1r	.
.	.	2e\	diil	.	.	[2g#\	con-	.	.
=5	=5	=5	=5	=5	=5	=5	=5	=5	=5
1E\	In	1e\	ve-	1B\	In	2g#\]	.	1r	.
.	.	.	.	.	.	2g#\	diil	.	.
=6	=6	=6	=6	=6	=6	=6	=6	=6	=6
1A\	va-	1e\	ro	1c\	va-	1a\	ve-	1r	.
=7	=7	=7	=7	=7	=7	=7	=7	=7	=7
2A\	noas-	1r	.	2c\	noas-	2e\	roin	1r	.
[2G\	con-	.	.	[2d\	con-	[2g\	van	.	.
=8	=8	=8	=8	=8	=8	=8	=8	=8	=8
2G\]	.	2r	.	2d\]	.	2g\]	.	1b\	In
2G#\	diil-	2E/	In	2e\	diil	2r	.	.	.
=9	=9	=9	=9	=9	=9	=9	=9	=9	=9
1A\	ve-	1A/	va-	1e\	ve-	2e\	t'af-	1cc#\	va-
.	.	.	.	.	.	[2a\	fan-	.	.
=10	=10	=10	=10	=10	=10	=10	=10	=10	=10
2AA/	roin-	2A/	noas-	2e\	roin	2a\]	.	2cc#\	noas-
[2BB/	van-	[2G/	con-	[2g\	van	2d\	niin	[2dd\	con-
=11	=11	=11	=11	=11	=11	=11	=11	=11	=11
2BB/]	.	2G/]	.	2g\]	.	2.g\	van	2dd\]	.
2C/	t'af-	2G/	diil	[2e\	t'af-	.	.	2ee\	diil
.	.	.	.	.	.	4g\	t'af-	.	.
=12	=12	=12	=12	=12	=12	=12	=12	=12	=12
1AA/	fan-	1A/	ve-	2e\]	.	1cc\	fan-	1ee\	ve-
.	.	.	.	[2a\	fan-	.	.	.	.
=13	=13	=13	=13	=13	=13	=13	=13	=13	=13
1E\	ni	2B\	roin-	2a\]	.	2b\	ni	2ee\	ro
.	.	[2B\	van	2g#\	ni	2r	.	2e/	in
=14	=14	=14	=14	=14	=14	=14	=14	=14	=14
1r	.	2B\]	.	1r	.	2d\	in	2.g/	van
.	.	2c\	t'af-	.	.	[2e\	van	.	.
.	.	.	.	.	.	.	.	4e/	t'af-
=15	=15	=15	=15	=15	=15	=15	=15	=15	=15
1r	.	2A/	fan-	2c#\	in	2e\]	.	1a/	fan-
.	.	4d\	.	[2d\	van	2f\	t´af-	.	.
.	.	4c\	.	.	.	.	.	.	.
=16	=16	=16	=16	=16	=16	=16	=16	=16	=16
1r	.	4.B\	.	4d\]	.	1d\	fan-	1g/	.
.	.	.	.	4G/	t'af-	.	.	.	.
.	.	8A/	.	.	.	.	.	.	.
.	.	2B\	.	[2d\	fan-	.	.	.	.
=17	=17	=17	=17	=17	=17	=17	=17	=17	=17
1r	.	1A/	ni	2d\]	.	1e\	ni	1a/	ni
.	.	.	.	2c\	ni	.	.	.	.
=18	=18	=18	=18	=18	=18	=18	=18	=18	=18
1r	.	2r	.	2r	.	2r	.	2r	.
.	.	2D/	Per-	2d\	Per-	[2f#\	Per-	2a/	Per-
=19	=19	=19	=19	=19	=19	=19	=19	=19	=19
1r	.	2D/	ch&eacute;	2.d\	ch&eacute;	2f#\]	.	4a/	ch&eacute;
.	.	.	.	.	.	.	.	4dd\	non
.	.	2G/	non	.	.	4g\	ch&eacute;	4b\	mi
.	.	.	.	[4g\	non	4d\	non	[4b\	si
=20	=20	=20	=20	=20	=20	=20	=20	=20	=20
1r	.	4E/	mi	4g\]	.	4e\	mi	4b\]	.
.	.	4E/	si	2e\	mi	4g\	si	2cc\	sco-
.	.	2G/	sco-	.	.	2g\	sco-	.	.
.	.	.	.	4d\	si	.	.	4b\	.
=21	=21	=21	=21	=21	=21	=21	=21	=21	=21
1r	.	2F/	pra	2f\	sco-	1c\	pra	1a/	pra
.	.	2A/	La	4e\	pra	.	.	.	.
.	.	.	.	4f\	La	.	.	.	.
=22	=22	=22	=22	=22	=22	=22	=22	=22	=22
1r	.	4c\	tua	4e\	tua	2r	.	2r	.
.	.	4A/	per-	4f\	per-	.	.	.	.
.	.	2B\	fi-	2d\	fi-	4r	.	2g/	La
.	.	.	.	.	.	4d\	La	.	.
=23	=23	=23	=23	=23	=23	=23	=23	=23	=23
1r	.	2c\	dia	2c\	dia	4g\	tua	4e/	tua
.	.	.	.	.	.	4e\	per-	4cc\	per-
.	.	4r	.	4r	.	2f#\	fi-	2a/	fi-
.	.	4d\	La	4d\	La	.	.	.	.
=24	=24	=24	=24	=24	=24	=24	=24	=24	=24
1r	.	4B\	tua	4g\	tua	4g\	dia	4g/	dia
.	.	4c\	per-	4e\	per-	4g\	La	4g/	La
.	.	2A/	fi-	2e\	fi-	4c\	tua	4cc\	tua
.	.	.	.	.	.	4fn\	per-	4a/	per-
=25	=25	=25	=25	=25	=25	=25	=25	=25	=25
1r	.	2G/	dia	2g\	dia	2d\	fi-	2b\	fi-
.	.	2r	.	2e\	ei	4c\	dia	2cc\	dia
.	.	.	.	.	.	[4A/	ei	.	.
=26	=26	=26	=26	=26	=26	=26	=26	=26	=26
1r	.	4r	.	1f\	mal	4A/]	.	1a/	ei
.	.	4D/	ei	.	.	2d\	mal	.	.
.	.	2F/	mal	.	.	.	.	.	.
.	.	.	.	.	.	[4c\	ce-	.	.
=27	=27	=27	=27	=27	=27	=27	=27	=27	=27
1r	.	4E/	ce-	1r	.	4c\]	.	2cc\	mal
.	.	2A/	la-	.	.	2f\	la-	.	.
.	.	.	.	.	.	.	.	4r	.
.	.	4G/	tiin-	.	.	4e\	tiin-	4e/	ei
=28	=28	=28	=28	=28	=28	=28	=28	=28	=28
1r	.	2F/	gan-	4r	.	2d\	gan-	1a/	mal
.	.	.	.	4A/	ei	.	.	.	.
.	.	[2E/	ni.	2c\	mal	[2e\	ni.	.	.
=29	=29	=29	=29	=29	=29	=29	=29	=29	=29
1r	.	1E/_	.	4B\	ce-	2e\]	.	4g#/	ce-
.	.	.	.	2e\	la-	.	.	2cc\	la-
.	.	.	.	.	.	2r	.	.	.
.	.	.	.	4d\	tiin-	.	.	4b\	tiin-
=30	=30	=30	=30	=30	=30	=30	=30	=30	=30
2r	.	2E/]	.	2c\	gan-	1e\	Cru-	2a/	gan-
2E\	Cru-	2G#/	Cru-	2B\	ni.	.	.	2b\	ni.
=31	=31	=31	=31	=31	=31	=31	=31	=31	=31
1A\	del	1c\	del	1r	.	2f\	del	1r	.
.	.	.	.	.	.	4f\	s'a	.	.
.	.	.	.	.	.	[4e\	no-	.	.
=32	=32	=32	=32	=32	=32	=32	=32	=32	=32
4A\	s'a	4c\	s'a	2r	.	4e\]	.	1r	.
2G\	no-	2B\	no-	.	.	4e\	voa-	.	.
.	.	.	.	4r	.	2d\	mo-	.	.
4G\	voa-	4B\	voa-	4d\	Cru-	.	.	.	.
=33	=33	=33	=33	=33	=33	=33	=33	=33	=33
2D\	mo-	2A/	mo-	2f\	del	4d\	re	4r	.
.	.	.	.	.	.	4a\	Cru-	4a/	Cru-
2AA/	re	2A/	re	4f\	s'a	2a\	del	2cc\	del
.	.	.	.	[4e\	no-	.	.	.	.
=34	=34	=34	=34	=34	=34	=34	=34	=34	=34
2r	.	1r	.	4e\]	.	4a\	s'a	4cc\	s'a
.	.	.	.	4e\	voa-	2g\	no-	2b\	no-
2GG/	Hai	.	.	2d\	mo-	.	.	.	.
.	.	.	.	.	.	4g\	voa-	4b\	voa-
=35	=35	=35	=35	=35	=35	=35	=35	=35	=35
1D\	pur	2D/	Hai	4d\	re	2f\	mo-	2a/	mo-
.	.	.	.	4d\	Hai	.	.	.	.
.	.	[2A/	pur	2f\	pur	2d\	re	2a/	re
=36	=36	=36	=36	=36	=36	=36	=36	=36	=36
4D\	ri-	2A/]	.	4f\	ri-	1r	.	1r	.
2C/	vol-	.	.	2e\	vol-	.	.	.	.
.	.	4A/	ri-	.	.	.	.	.	.
4C/	toil	[4G/	vol-	4e\	toil	.	.	.	.
=37	=37	=37	=37	=37	=37	=37	=37	=37	=37
2GG/	co-	4G/]	.	2d\	co-	4r	.	2r	.
.	.	4G/	toil	.	.	4d\	Hai	.	.
2D\	re	2D/	co-	4d\	re	2f\	pur	2a/	Hai
.	.	.	.	4a\	Hai	.	.	.	.
=38	=38	=38	=38	=38	=38	=38	=38	=38	=38
1r	.	2A/	re	2a\	pur	4f\	ri-	2cc\	pur
.	.	.	.	.	.	2e\	vol-	.	.
.	.	2r	.	4g\	ri-	.	.	4cc\	ri-
.	.	.	.	[4g\	vol-	4e\	toil	[4b\	vol-
=39	=39	=39	=39	=39	=39	=39	=39	=39	=39
2r	.	2G/	Go-	4g\]	.	2.d\	co-	4b\]	.
.	.	.	.	4g\	toil	.	.	4b\	toil
2AA/	Go-	2A/	di	2e\	co-	.	.	2a/	co-
.	.	.	.	.	.	4c#\	.	.	.
=40	=40	=40	=40	=40	=40	=40	=40	=40	=40
2D\	di	2r	.	2f#\	re	1d\	re	2a/	re
[2G\	Go-	[2d\	Go-	[2g\	Go-	.	.	[2b\	Go-
=41	=41	=41	=41	=41	=41	=41	=41	=41	=41
2G\]	.	2d\]	.	2g\]	.	2g\	Go-	2b\]	.
[2C/	die-	2c\	di	[2g\	di	2e\	di	2cc\	di
=42	=42	=42	=42	=42	=42	=42	=42	=42	=42
4C/]	.	2r	.	2g\]	.	4e\	e	1r	.
4BB/	le	.	.	.	.	4d\	le	.	.
4C/	tue	4G/	e	2r	.	4e\	tue	.	.
4D\	lu-	4F/	le	.	.	4f\	lu-	.	.
=43	=43	=43	=43	=43	=43	=43	=43	=43	=43
4E\	sin-	4G/	tue	2r	.	2e\	sin-	2r	.
4F\	gheal-	4A/	lu-	.	.	.	.	.	.
4G\	tro-	4B\	sin-	4B\	e	4d\	ghee	4g/	e
4A\	vea-	4c\	gheal-	4A/	le	4c\	le	4f/	le
=44	=44	=44	=44	=44	=44	=44	=44	=44	=44
2.G\	do-	4d\	tro-	4B\	tue	4B\	tue	4g/	tue
.	.	4e\	vea-	4c\	lu-	4G/	lu-	4a/	lu-
.	.	4d\	do-	4d\	sin-	4g\	sin-	4b\	sin-
4C/	pra.	4c\	praal-	4e\	gheal-	4g\	gheal-	4cc\	gheal-
=45	=45	=45	=45	=45	=45	=45	=45	=45	=45
1r	.	4G/	tro-	4.d\	tro-	4g\	tro-	4b\	tro-
.	.	4D/	vea-	.	.	4f\	vea-	4a/	vea-
.	.	.	.	8c\	vea-	.	.	.	.
.	.	2E/	do-	2B\	do-	2e\	do-	4a/	do-
.	.	.	.	.	.	.	.	4g#/	.
=46	=46	=46	=46	=46	=46	=46	=46	=46	=46
1r	.	2A/	pra.	2c#\	pra.	2e\	pra.	2a/	pra.
.	.	[2F/	Gi&agrave;	[2f\	Gi&agrave;	[2a\	Gi&agrave;	[2cc\	Gi&agrave;
=47	=47	=47	=47	=47	=47	=47	=47	=47	=47
1r	.	2F/]	.	2f\]	.	2a\]	.	2cc\]	.
.	.	2F/	non	2f\	non	2a\	non	2cc\	non
=48	=48	=48	=48	=48	=48	=48	=48	=48	=48
2r	.	2.c\	si-	2e\	sia	2g\	sia	[1cc\	sia
[2C/	Gi&agrave;	.	.	[2g\	Gi&agrave;	[2e\	Gi&agrave;	.	.
.	.	8B/L	.	.	.	.	.	.	.
.	.	8A/J	.	.	.	.	.	.	.
=49	=49	=49	=49	=49	=49	=49	=49	=49	=49
2C/]	.	2G/	a	2g\]	.	2e\]	.	1cc\]	.
2C/	non	4G/	che'l	2g\	non	2e\	non	.	.
.	.	4A/	tuo	.	.	.	.	.	.
=50	=50	=50	=50	=50	=50	=50	=50	=50	=50
2.G\	si-	4B\	lau-	1g\	sia	2d\	sia	1r	.
.	.	4G/	roin	.	.	.	.	.	.
.	.	4B\	me	.	.	4d\	che'l	.	.
8F\L	.	4c\	ger-	.	.	4e\	tuo	.	.
8E\J	.	.	.	.	.	.	.	.	.
=51	=51	=51	=51	=51	=51	=51	=51	=51	=51
2D\	a	1d\	mo-	1r	.	4f\	lau-	1r	.
.	.	.	.	.	.	4d\	roin	.	.
4D\	che'l	.	.	.	.	4f\	me	.	.
4E\	tuo	.	.	.	.	4g\	ger-	.	.
=52	=52	=52	=52	=52	=52	=52	=52	=52	=52
4F\	lau-	4c\	glie	2r	.	1a\	mo-	1r	.
4D\	roin	2f\	Mai	.	.	.	.	.	.
4F\	me	.	.	4A/	che'l	.	.	.	.
4G\	ger-	[4e\	pi&ugrave;	4B\	tuo	.	.	.	.
=53	=53	=53	=53	=53	=53	=53	=53	=53	=53
2A\	mo-	4e\]	.	4c\	lau-	2.a\	glie	1r	.
.	.	4f\	in-	4A/	roin	.	.	.	.
4A\	glie	4e\	me	4c\	me	.	.	.	.
4B\	Mai	4d\	ger-	4d\	ger-	4g\	Mai	.	.
=54	=54	=54	=54	=54	=54	=54	=54	=54	=54
2.A\	pi&ugrave;	2c#\	mo-	2e\	mo-	2a\	pi&ugrave;	1r	.
.	.	4c#\	glie	4e\	glie	2a\	Mai	.	.
4D\	Mai	4d\	Mai	4f#\	Mai	.	.	.	.
=55	=55	=55	=55	=55	=55	=55	=55	=55	=55
1G\	pi&ugrave;	2.d\	pi&ugrave;	1g\	pi&ugrave;	2b\	pi&ugrave;	2r	.
.	.	.	.	.	.	4r	.	2dd\	del
.	.	4B\	del	.	.	4d\	del	.	.
=56	=56	=56	=56	=56	=56	=56	=56	=56	=56
2r	.	4c\	ver-	2r	.	4e\	ver-	4cc\	ver-
.	.	4d\	dehor	.	.	4f#\	dehor	4a/	dehor
4r	.	4G/	scos-	4r	.	4g\	scos-	4b\	scos-
4G\	del	8G/L	so	4B\	del	8g\L	so	8b\L	so
.	.	8G/J	del	.	.	8d\J	del-	8b\J	del
=57	=57	=57	=57	=57	=57	=57	=57	=57	=57
4F\	ver-	4A/	ver-	4c\	ver-	4f\	ver-	4a/	ver-
4D\	dehor	4A/	dehor	4d\	dehor	4f\	dehor	4a/	dehor
4E\	scos-	4c\	scos-	4G/	scos-	4e\	scos-	4g/	scos-
4E\	.	4c\	soe	4G/	soe	4g\	soe	4g/	so
=58	=58	=58	=58	=58	=58	=58	=58	=58	=58
4D\	del-	4d\	del-	4A/	del-	4f\	del-	2r	.
4D\	le	4f\	le	4d\	le	4a\	le	.	.
4A\	fo-	4e\	fo-	4c#\	fo-	4a\	fo-	4r	.
4A\	glie	8e\L	glie	8c#\L	glie	8a\L	glie	4a/	e
.	.	8A\J	e	8c#\J	del	8e\J	e	.	.
=59	=59	=59	=59	=59	=59	=59	=59	=59	=59
2r	.	4G/	del-	4d\	ver-	4g\	del-	4b\	del-
.	.	4G/	le	4g\	dehor	4b\	le	4dd\	le
4r	.	4d\	fo-	4f#\	scos-	4a\	fo-	4dd\	fo-
4BB/	del	4d\	glie	8g\L	so	8g\L	glie	4dd\	glie
.	.	.	.	8G\J	del	8d\J	del	.	.
=60	=60	=60	=60	=60	=60	=60	=60	=60	=60
4C/	ver-	2r	.	4G/	ver-	4c\	ver-	2r	.
4D\	dehor	.	.	4F/	dehor	4A/	dehor	.	.
4GG/	scos-	4r	.	4G/	scos-	4B\	scos-	2dd\	del
4GG/	so-	4B\	del	8G/L	so	8B\L	so	.	.
.	.	.	.	8d/J	del	8g\J	del-	.	.
=61	=61	=61	=61	=61	=61	=61	=61	=61	=61
1r	.	4c\	ver-	4e\	ver-	4g\	ver-	4cc\	ver-
.	.	4d\	dehor	4d\	dehor	4f#\	dehor	4a/	dehor-
.	.	4G/	scos-	4d\	scos-	4g\	scos-	4b\	scos-
.	.	4E/	soe	4e\	soe-	4g\	soe	4cc\	soe
=62	=62	=62	=62	=62	=62	=62	=62	=62	=62
4r	.	4D/	del-	4f\	del-	4a\	del-	4dd\	del-
4BB/	e	4D/	le	4d\	le	4g\	le	4dd\	le
4AA/	del-	4A/	fo-	2e\	fo-	2a\	fo-	2cc\	fo-
4AA/	le	4A/	glie	.	.	.	.	.	.
=63	=63	=63	=63	=63	=63	=63	=63	=63	=63
4E\	fo-	4r	.	4e\	glie	2g#\	glie	4b\	glie
4E\	glie	4E/	e	4e\	e	.	.	4b\	e
4r	.	4D/	del-	4f\	del-	4r	.	4dd\	del-
4BB/	e	4D/	le	4d\	le	4g#\	e	4dd\	le
=64	=64	=64	=64	=64	=64	=64	=64	=64	=64
2AA/	del-	1A/	fo-	1e\	fo-	2a\	del-	1cc\	fo-
2AA/	le	.	.	.	.	2a\	le	.	.
=65	=65	=65	=65	=65	=65	=65	=65	=65	=65
1E\	fo-	[1B\	glie.	[1e\	glie.	1g#\	fo-	[1b\	glie.
=66	=66	=66	=66	=66	=66	=66	=66	=66	=66
1E\	glie.	1B\]	.	1e\]	.	1g#\	glie.	1b\]	.
==	==	==	==	==	==	==	==	==	==
*-	*-	*-	*-	*-	*-	*-	*-	*-	*-
